icons-rebrand/svg/active-speaker-alert-bold.svg

<svg width="32" height="32" viewBox="0 0 32 32" fill="none" xmlns="http://www.w3.org/2000/svg">
<path d="M8.25 14.4419V15.7499C8.25 15.9488 8.32902 16.1396 8.46967 16.2802C8.61032 16.4209 8.80109 16.4999 9 16.4999C9.19891 16.4999 9.38968 16.4209 9.53033 16.2802C9.67098 16.1396 9.75 15.9488 9.75 15.7499V14.4419C9.75 14.243 9.67098 14.0522 9.53033 13.9116C9.38968 13.7709 9.19891 13.6919 9 13.6919C8.80109 13.6919 8.61032 13.7709 8.46967 13.9116C8.32902 14.0522 8.25 14.243 8.25 14.4419ZM9 18.9999C9.19891 18.9999 9.38968 18.9209 9.53033 18.7802C9.67098 18.6396 9.75 18.4488 9.75 18.2499C9.75 18.051 9.67098 17.8602 9.53033 17.7196C9.38968 17.5789 9.19891 17.4999 9 17.4999C8.80109 17.4999 8.61032 17.5789 8.46967 17.7196C8.32902 17.8602 8.25 18.051 8.25 18.2499C8.25 18.4488 8.32902 18.6396 8.46967 18.7802C8.61032 18.9209 8.80109 18.9999 9 18.9999Z" fill="#0F0F0F"/>
<path d="M10.7521 10.0099L10.7411 9.98988C10.5641 9.68649 10.3104 9.43505 10.0054 9.26085C9.70039 9.08666 9.3549 8.99586 9.00367 8.99758C8.65244 8.9993 8.30786 9.09349 8.00459 9.27067C7.70132 9.44785 7.45006 9.70177 7.27608 10.0069L2.27308 18.9919C2.09568 19.2959 2.00165 19.6414 2.0005 19.9933C1.99935 20.3453 2.09111 20.6914 2.26653 20.9966C2.44194 21.3017 2.69478 21.5552 2.99952 21.7314C3.30426 21.9075 3.65009 22.0002 4.00208 21.9999H14.0001C14.3501 22 14.6941 21.9082 14.9976 21.7338C15.301 21.5593 15.5534 21.3082 15.7294 21.0056C15.9055 20.7031 15.999 20.3596 16.0007 20.0096C16.0024 19.6595 15.9122 19.3151 15.7391 19.0109L10.7521 10.0089V10.0099ZM4.01208 19.9819L9.01208 10.9939L14.0001 19.9999L4.01108 19.9819H4.01208ZM24.0001 28.9999C23.8018 29.0002 23.6079 28.9416 23.443 28.8315C23.2781 28.7214 23.1496 28.5648 23.074 28.3815C22.9983 28.1982 22.9788 27.9966 23.018 27.8022C23.0572 27.6078 23.1533 27.4295 23.2941 27.2899C24.7605 25.8371 25.9306 24.1132 26.7391 22.2139C27.571 20.2478 27.9996 18.1347 27.9996 15.9999C27.9996 13.8651 27.571 11.752 26.7391 9.78588C25.9304 7.88643 24.7604 6.16216 23.2941 4.70888C23.1983 4.6169 23.1219 4.50677 23.0692 4.38492C23.0164 4.26308 22.9885 4.13195 22.987 3.9992C22.9855 3.86644 23.0104 3.73471 23.0603 3.61169C23.1103 3.48868 23.1842 3.37683 23.2778 3.28269C23.3714 3.18855 23.4829 3.11398 23.6056 3.06336C23.7283 3.01273 23.8599 2.98705 23.9927 2.98781C24.1254 2.98857 24.2567 3.01576 24.3789 3.0678C24.501 3.11983 24.6116 3.19567 24.7041 3.29088C26.3834 4.95404 27.7164 6.93351 28.6262 9.11491C29.5359 11.2963 30.0043 13.6364 30.0043 15.9999C30.0043 18.3634 29.5359 20.7035 28.6262 22.8849C27.7164 25.0663 26.3834 27.0457 24.7041 28.7089C24.517 28.8949 24.2639 28.9992 24.0001 28.9989V28.9999Z" fill="#0F0F0F"/>
<path d="M20.4999 25.9999C20.3044 26.0001 20.1131 25.9431 19.9497 25.8358C19.7862 25.7285 19.6578 25.5756 19.5804 25.3961C19.5029 25.2166 19.4798 25.0183 19.5138 24.8258C19.5478 24.6333 19.6376 24.4549 19.7719 24.3129C20.0579 24.0109 20.3259 23.6929 20.5759 23.3599C21.2156 22.5087 21.7386 21.5758 22.1309 20.5859C23.2885 17.6385 23.2885 14.3623 22.1309 11.4149C21.7365 10.4199 21.2102 9.4825 20.5659 8.62788C20.3177 8.29944 20.0523 7.98433 19.7709 7.68388C19.681 7.58821 19.6108 7.47578 19.5644 7.35299C19.5179 7.23021 19.4962 7.09948 19.5002 6.96827C19.5043 6.83706 19.5342 6.70794 19.5882 6.58828C19.6422 6.46862 19.7192 6.36077 19.8149 6.27088C19.9105 6.18099 20.023 6.11083 20.1458 6.06439C20.2686 6.01795 20.3993 5.99615 20.5305 6.00024C20.6617 6.00433 20.7908 6.03422 20.9105 6.0882C21.0301 6.14219 21.138 6.21921 21.2279 6.31488C21.5589 6.66688 21.8709 7.03688 22.1619 7.42188C22.9149 8.41948 23.5301 9.51399 23.9909 10.6759C25.336 14.0978 25.336 17.902 23.9909 21.3239C23.5323 22.4803 22.9209 23.57 22.1729 24.5639C21.8789 24.9539 21.5629 25.3289 21.2269 25.6859C21.1334 25.7849 21.0207 25.8638 20.8957 25.9177C20.7707 25.9717 20.636 25.9997 20.4999 25.9999Z" fill="#0F0F0F"/>
</svg>

<svg width="32" height="32" viewBox="0 0 32 32" fill="none" xmlns="http://www.w3.org/2000/svg"><path d="M8.25 14.442v1.308a.75.75 0 0 0 1.5 0v-1.308a.75.75 0 1 0-1.5 0zM9 19a.75.75 0 1 0 0-1.5.75.75 0 0 0 0 1.5z" fill="#0F0F0F"/><path d="M10.752 10.01l-.011-.02a2 2 0 0 0-3.465.017l-5.003 8.985A2 2 0 0 0 4.002 22H14a2 2 0 0 0 1.739-2.989l-4.987-9.002zm-6.74 9.972l5-8.988L14 20l-9.989-.018zM24 29a1 1 0 0 1-.706-1.71 15.926 15.926 0 0 0 3.445-5.076 15.947 15.947 0 0 0 0-12.428 15.94 15.94 0 0 0-3.445-5.077 1 1 0 1 1 1.41-1.418 17.887 17.887 0 0 1 0 25.418.997.997 0 0 1-.704.29z" fill="#0F0F0F"/><path d="M20.5 26a1 1 0 0 1-.728-1.687c.286-.302.554-.62.804-.953a11.938 11.938 0 0 0 1.555-2.774 12.543 12.543 0 0 0 0-9.171 11.934 11.934 0 0 0-1.565-2.787 11.693 11.693 0 0 0-.795-.944.999.999 0 1 1 1.457-1.369c.331.352.643.722.934 1.107a13.915 13.915 0 0 1 1.829 3.254 14.553 14.553 0 0 1 0 10.648 13.922 13.922 0 0 1-1.818 3.24c-.294.39-.61.765-.946 1.122A1.002 1.002 0 0 1 20.5 26z" fill="#0F0F0F"/></svg>
